X:6024
T:Showman
O:england
M:4/4
L:1/8
C:Trad
R:Hornpipe
K:D
FG | A^GAB Adfd | ~B2 gf edcB | A^GAB AFDF |~E2 ED E2  FG | A^GAB Adf
d | ~B2 gf edcB | Adfa gecd | eddc d2 :|
|:cd | e^def gece | dcde fdAd | ~g2 ~f2 ~e2  ~d2 | ~c2 ~B2  A2 FG | A^GA
B Adfd | ~B2
gf edcB | Aafd Bgec | d2f2d2 :|


